UI/Travel-Transport-Tracking/SVG/road-tolls_solid_24px.svg

<svg width="24" height="24" viewBox="0 0 24 24" fill="none" xmlns="http://www.w3.org/2000/svg">
<path d="M20 15V20H4V15H2V22H22V15H20ZM12 10C10.4087 10 8.88258 10.6321 7.75736 11.7574C6.63214 12.8826 6 14.4087 6 16C5.99816 16.6821 6.11664 17.3591 6.35 18H11V14H13V18H17.65C17.8834 17.3591 18.0018 16.6821 18 16C18 14.4087 17.3679 12.8826 16.2426 11.7574C15.1174 10.6321 13.5913 10 12 10ZM12 2C10.4087 2 8.88258 2.63214 7.75736 3.75736C6.63214 4.88258 6 6.4087 6 8C5.99816 8.68206 6.11664 9.3591 6.35 10H6.71C7.91504 8.94077 9.40879 8.26528 11 8.06V6H13V8.06C14.5912 8.26528 16.085 8.94077 17.29 10H17.65C17.8834 9.3591 18.0018 8.68206 18 8C18 6.4087 17.3679 4.88258 16.2426 3.75736C15.1174 2.63214 13.5913 2 12 2Z" fill="#0F1621"/>
</svg>

<svg xmlns="http://www.w3.org/2000/svg" width="24" height="24" viewBox="0 0 24 24"><rect width="24" height="24" style="fill:none"/><path d="M20,15v5H4V15H2v7H22V15Zm-8-5a6,6,0,0,0-6,6,5.8,5.8,0,0,0,.35,2H11V14h2v4h4.65A5.8,5.8,0,0,0,18,16,6,6,0,0,0,12,10Zm0-8A6,6,0,0,0,6,8a5.8,5.8,0,0,0,.35,2h.36A8.06,8.06,0,0,1,11,8.06V6h2V8.06A8.06,8.06,0,0,1,17.29,10h.36A5.8,5.8,0,0,0,18,8,6,6,0,0,0,12,2Z"/></svg>
